assets/Rooster/Flat/rooster_flat.svg

<svg width="32" height="32" viewBox="0 0 32 32" fill="none" xmlns="http://www.w3.org/2000/svg">
<path d="M14.85 28.5H13.93L15.04 24.25H13.54L12.43 28.5H11.23C10.57 28.5 10.04 29.03 10.04 29.69C10.04 29.86 10.18 30 10.35 30H15.73C15.9 30 16.04 29.86 16.04 29.69C16.04 29.03 15.5 28.5 14.85 28.5Z" fill="#FF6723"/>
<path d="M5.03 10.2499L3.22 9.47988C2.97 9.36988 2.92 9.03988 3.13 8.85988L5.49 6.87988L6 9L5.03 10.2499Z" fill="#FF822D"/>
<path d="M17.93 28.5H18.85C19.5 28.5 20.04 29.03 20.04 29.69C20.04 29.86 19.9 30 19.73 30H14.35C14.18 30 14.04 29.86 14.04 29.69C14.04 29.03 14.57 28.5 15.23 28.5H16.43L17.54 24.25H19.04L17.93 28.5Z" fill="#FF822D"/>
<path d="M5 15V12L9.36061 9.76001L13.9559 12L14.1161 12.31C14.6559 13.35 15.7254 14 16.8949 14C17.5047 14 18 13.51 18 12.9L27.4505 17C27.0806 17 26.7608 17.26 26.6708 17.62C25.5013 22.43 21.1631 26 15.9953 26C9.91791 26 5 21.08 5 15Z" fill="#6D4534"/>
<path d="M18 10.7408V13C18 15.2091 19.7909 17 22 17H28.53C28.7299 17 28.9198 16.87 28.9698 16.67C29.0198 16.47 28.9298 16.28 28.7699 16.18L26.9307 15.12C26.7008 14.99 26.6008 14.7 26.7208 14.46C26.8507 14.2 27.1706 14.1 27.4205 14.25L28.9798 15.15C29.4196 15.4 29.8894 15.21 29.9794 14.71C30.0294 14.43 29.8994 14.15 29.6595 14.01L26.9407 12.44C26.7108 12.31 26.6108 12.02 26.7308 11.78C26.8607 11.52 27.1806 11.42 27.4305 11.57L28.9898 12.47C29.4296 12.72 29.8994 12.53 29.9894 12.03C30.0394 11.75 29.9094 11.47 29.6695 11.33L26.9507 9.76C26.7208 9.63 26.6208 9.34 26.7408 9.1C26.8707 8.84 27.1906 8.74 27.4405 8.89L29.2897 9.96C29.5696 10.12 29.9094 9.87 29.8295 9.55C29.1597 6.93 26.8007 5 23.9919 5C20.7702 5 18.136 7.55069 18 10.7408Z" fill="#44911B"/>
<path d="M13.96 12L11.891 8L11.5 5.5C11 4.54 9.16 3.5 8 3.5C5.5 3.5 5 5.34 5 7V12H13.96Z" fill="#FFB02E"/>
<path d="M13.03 4.01C12.54 3.52 11.85 3.34 11.21 3.47C11.06 3.5 10.92 3.42 10.86 3.27C10.57 2.53 9.84 2 9 2C8.3 2 7.69 2.36 7.33 2.9C7.24 3.04 7.07 3.1 6.91 3.06C6.76 3.02 6.61 3 6.46 3C5.64 3.02 5 3.72 5 4.54V7C5 5.34 6.34 4 8 4C9.16 4 10.16 4.66 10.66 5.62L11.8873 7.99273L13.04 6.84C13.82 6.06 13.82 4.8 13.03 4.01Z" fill="#F8312F"/>
<path d="M7.25 10.25C8.49264 10.25 9.5 9.24264 9.5 8C9.5 6.75736 8.49264 5.75 7.25 5.75C6.00736 5.75 5 6.75736 5 8L5.0002 8.03003L5 9.26003C5 9.71003 4.74 10.13 4.34 10.33L3.93 10.53C3.36 10.82 3 11.4 3 12.04V12.97C3 13.51 3.41 13.97 3.95 14C4.52 14.03 5 13.57 5 13V11.16C5 10.66 5.41 10.25 5.91 10.25L7.25 10.25Z" fill="#F8312F"/>
<path d="M6.7 8.4C7.0866 8.4 7.4 8.0866 7.4 7.7C7.4 7.3134 7.0866 7 6.7 7C6.3134 7 6 7.3134 6 7.7C6 8.0866 6.3134 8.4 6.7 8.4Z" fill="#212121"/>
<path d="M8.11001 16C7.56001 16 7.15001 16.51 7.27001 17.05C8.20001 21.03 11.78 24 16.04 24C20.3 24 23.87 21.03 24.8 17.05C24.93 16.51 24.51 16 23.96 16H8.11001Z" fill="#A56953"/>
</svg>

<svg xmlns="http://www.w3.org/2000/svg" width="32" height="32" fill="none"><path fill="#FF6723" d="M14.85 28.5h-.92l1.11-4.25h-1.5l-1.11 4.25h-1.2c-.66 0-1.19.53-1.19 1.19 0 .17.14.31.31.31h5.38c.17 0 .31-.14.31-.31 0-.66-.54-1.19-1.19-1.19Z"/><path fill="#FF822D" d="m5.03 10.25-1.81-.77a.368.368 0 0 1-.09-.62l2.36-1.98L6 9l-.97 1.25ZM17.93 28.5h.92c.65 0 1.19.53 1.19 1.19 0 .17-.14.31-.31.31h-5.38c-.17 0-.31-.14-.31-.31 0-.66.53-1.19 1.19-1.19h1.2l1.11-4.25h1.5l-1.11 4.25Z"/><path fill="#6D4534" d="M5 15v-3l4.36-2.24L13.957 12l.16.31A3.128 3.128 0 0 0 16.895 14c.61 0 1.105-.49 1.105-1.1l9.45 4.1a.81.81 0 0 0-.78.62C25.502 22.43 21.164 26 15.996 26 9.918 26 5 21.08 5 15Z"/><path fill="#44911B" d="M18 10.74V13a4 4 0 0 0 4 4h6.53c.2 0 .39-.13.44-.33.05-.2-.04-.39-.2-.49l-1.84-1.06a.505.505 0 0 1-.21-.66c.13-.26.45-.36.7-.21l1.56.9c.44.25.91.06 1-.44a.674.674 0 0 0-.32-.7l-2.72-1.57a.505.505 0 0 1-.21-.66c.13-.26.45-.36.7-.21l1.56.9c.44.25.91.06 1-.44a.674.674 0 0 0-.32-.7l-2.72-1.57a.505.505 0 0 1-.21-.66c.13-.26.45-.36.7-.21l1.85 1.07c.28.16.62-.09.54-.41C29.16 6.93 26.8 5 23.991 5A6.004 6.004 0 0 0 18 10.74Z"/><path fill="#FFB02E" d="m13.96 12-2.069-4-.391-2.5c-.5-.96-2.34-2-3.5-2-2.5 0-3 1.84-3 3.5v5h8.96Z"/><path fill="#F8312F" d="M13.03 4.01c-.49-.49-1.18-.67-1.82-.54-.15.03-.29-.05-.35-.2A2.008 2.008 0 0 0 9 2c-.7 0-1.31.36-1.67.9-.09.14-.26.2-.42.16-.15-.04-.3-.06-.45-.06C5.64 3.02 5 3.72 5 4.54V7a2.996 2.996 0 0 1 5.66-1.38l1.227 2.373L13.04 6.84c.78-.78.78-2.04-.01-2.83Z"/><path fill="#F8312F" d="M7.25 10.25A2.25 2.25 0 1 0 5 8v1.26c0 .45-.26.87-.66 1.07l-.41.2c-.57.29-.93.87-.93 1.51v.93c0 .54.41 1 .95 1.03.57.03 1.05-.43 1.05-1v-1.84c0-.5.41-.91.91-.91h1.34Z"/><path fill="#212121" d="M6.7 8.4a.7.7 0 1 0 0-1.4.7.7 0 0 0 0 1.4Z"/><path fill="#A56953" d="M8.11 16c-.55 0-.96.51-.84 1.05.93 3.98 4.51 6.95 8.77 6.95s7.83-2.97 8.76-6.95a.857.857 0 0 0-.84-1.05H8.11Z"/></svg>
